X:10
T:Red Tom of the Hills
R:Reel
C:Ed Reavy
S:The Collected Compositions of Ed Reavy
M:C
L:1/8
Z:Joe Reavy
N:Red Tom of the Hills. Tom came from somewhere
N:in the Monaghan Hills-no one knew exactly where.
N:He loved to ceili and "pack it in"
N:Tom had a "shakey" hand that could have
N:been a trial to most. But you would never know
N:it from the way Tom could slap large cuts of butter
N:on his bread at tea time. Mom Reavy said
N:Tom's hand was not to be pitied
N:"for it always shook deeper into the butter."
K:G
GF|DG (3GFG DE=FD|GABc defa|gfdc (3Bcd BG|(3ABc AF DE=FD|
G2 dG c=fA^F|GABc defgf|dc B2 (3dcB|cAfA g2:||
Bd|g2 afb gfg bg BFFe|=f a^f gfaf|(3fef af dcBc|
dG(3gfg bf (3gfg|BFBd gdBd|=fefa g^fga|fdcA G2||
